Newaita-dark/.DP/16/network-wired-no-route.svg

<?xml version="1.0" encoding="UTF-8"?>
<svg xmlns="http://www.w3.org/2000/svg" xmlns:xlink="http://www.w3.org/1999/xlink" width="16pt" height="16pt" viewBox="0 0 16 16" version="1.1">
<g id="surface1">
<path style=" stroke:none;fill-rule:nonzero;fill:rgb(67.058825%,27.843139%,73.725492%);fill-opacity:1;" d="M 10.464844 10.257812 C 10.203125 10.515625 10.203125 10.933594 10.464844 11.195312 L 11.632812 12.363281 L 10.464844 13.53125 C 10.203125 13.792969 10.203125 14.207031 10.464844 14.46875 C 10.722656 14.726562 11.140625 14.726562 11.398438 14.46875 L 12.570312 13.296875 L 13.738281 14.46875 C 13.996094 14.726562 14.414062 14.726562 14.675781 14.46875 C 14.933594 14.207031 14.933594 13.792969 14.675781 13.53125 L 13.503906 12.363281 L 14.675781 11.195312 C 14.933594 10.933594 14.933594 10.515625 14.675781 10.257812 C 14.414062 10 13.996094 10 13.738281 10.257812 L 12.570312 11.425781 L 11.398438 10.257812 C 11.140625 10 10.722656 10 10.464844 10.257812 Z M 10.464844 10.257812 "/>
<path style=" stroke:none;fill-rule:nonzero;fill:rgb(74.117649%,74.117649%,74.117649%);fill-opacity:1;" d="M 2.644531 2.441406 C 1.914062 2.441406 1.324219 3.03125 1.324219 3.761719 L 1.324219 11.039062 C 1.324219 11.773438 1.914062 12.363281 2.644531 12.363281 L 3.308594 12.363281 L 3.308594 12.417969 C 3.308594 13.121094 3.898438 13.6875 4.628906 13.6875 L 8.929688 13.6875 L 8.929688 12.363281 L 5.292969 12.363281 C 4.925781 12.363281 4.628906 12.066406 4.628906 11.703125 L 4.628906 11.039062 L 3.308594 11.039062 C 2.941406 11.039062 2.644531 10.746094 2.644531 10.378906 L 2.644531 4.425781 C 2.644531 4.058594 2.941406 3.761719 3.308594 3.761719 L 12.570312 3.761719 C 12.933594 3.761719 13.230469 4.058594 13.230469 4.425781 L 13.230469 8.4375 C 13.332031 8.410156 13.445312 8.394531 13.5625 8.394531 L 14.554688 8.394531 L 14.554688 3.761719 C 14.554688 3.03125 13.964844 2.441406 13.230469 2.441406 Z M 2.644531 2.441406 "/>
<path style=" stroke:none;fill-rule:nonzero;fill:rgb(100%,65.490198%,14.901961%);fill-opacity:1;" d="M 7.277344 3.761719 L 7.277344 4.425781 C 7.277344 4.792969 7.566406 5.085938 7.925781 5.085938 L 7.953125 5.085938 C 8.3125 5.085938 8.601562 4.792969 8.601562 4.425781 L 8.601562 3.761719 Z M 7.277344 3.761719 "/>
<path style=" stroke:none;fill-rule:nonzero;fill:rgb(100%,65.490198%,14.901961%);fill-opacity:1;" d="M 5.292969 3.761719 L 5.292969 4.425781 C 5.292969 4.792969 5.582031 5.085938 5.941406 5.085938 L 5.96875 5.085938 C 6.324219 5.085938 6.613281 4.792969 6.613281 4.425781 L 6.613281 3.761719 Z M 5.292969 3.761719 "/>
<path style=" stroke:none;fill-rule:nonzero;fill:rgb(100%,65.490198%,14.901961%);fill-opacity:1;" d="M 3.308594 3.761719 L 3.308594 4.425781 C 3.308594 4.792969 3.597656 5.085938 3.957031 5.085938 L 3.984375 5.085938 C 4.339844 5.085938 4.628906 4.792969 4.628906 4.425781 L 4.628906 3.761719 Z M 3.308594 3.761719 "/>
<path style=" stroke:none;fill-rule:nonzero;fill:rgb(100%,65.490198%,14.901961%);fill-opacity:1;" d="M 9.261719 3.761719 L 9.261719 4.425781 C 9.261719 4.792969 9.550781 5.085938 9.910156 5.085938 L 9.9375 5.085938 C 10.296875 5.085938 10.585938 4.792969 10.585938 4.425781 L 10.585938 3.761719 Z M 9.261719 3.761719 "/>
<path style=" stroke:none;fill-rule:nonzero;fill:rgb(100%,65.490198%,14.901961%);fill-opacity:1;" d="M 11.246094 3.761719 L 11.246094 4.425781 C 11.246094 4.792969 11.535156 5.085938 11.894531 5.085938 L 11.921875 5.085938 C 12.28125 5.085938 12.570312 4.792969 12.570312 4.425781 L 12.570312 3.761719 Z M 11.246094 3.761719 "/>
</g>
</svg>

<svg xmlns="http://www.w3.org/2000/svg" width="16pt" height="16pt" viewBox="0 0 16 16"><path d="M10.465 10.258a.658.658 0 0 0 0 .937l1.168 1.168-1.168 1.168a.658.658 0 0 0 0 .938.66.66 0 0 0 .933 0l1.172-1.172 1.168 1.172a.665.665 0 0 0 .938 0 .665.665 0 0 0 0-.938l-1.172-1.168 1.172-1.168a.665.665 0 0 0 0-.937.665.665 0 0 0-.938 0l-1.168 1.168-1.172-1.168a.66.66 0 0 0-.933 0zm0 0" fill="#ab47bc"/><path d="M2.645 2.441c-.73 0-1.32.59-1.32 1.32v7.278c0 .734.59 1.324 1.32 1.324h.664v.055c0 .703.59 1.27 1.32 1.27h4.3v-1.325H5.294a.663.663 0 0 1-.664-.66v-.664h-1.32a.66.66 0 0 1-.664-.66V4.426c0-.367.296-.664.664-.664h9.261c.364 0 .66.297.66.664v4.011c.102-.027.215-.042.332-.042h.993V3.762c0-.73-.59-1.32-1.325-1.32zm0 0" fill="#bdbdbd"/><path d="M7.277 3.762v.664c0 .367.29.66.649.66h.027c.36 0 .649-.293.649-.66v-.664zm0 0M5.293 3.762v.664c0 .367.289.66.648.66h.028a.651.651 0 0 0 .644-.66v-.664zm0 0M3.309 3.762v.664c0 .367.289.66.648.66h.027a.651.651 0 0 0 .645-.66v-.664zm0 0M9.262 3.762v.664c0 .367.289.66.648.66h.027c.36 0 .649-.293.649-.66v-.664zm0 0M11.246 3.762v.664c0 .367.29.66.649.66h.027c.36 0 .648-.293.648-.66v-.664zm0 0" fill="#ffa726"/></svg>
